X:534
T:Gun Fleet,The. (p)1721.PLFD.534
M:4/4
L:1/4
Q:1/2=80
S:Playford, Dancing Master,17th Ed.,1721.
O:England
Z:Chris Partington.
K:F
cd/c/fg|aggc|de/f/ f/c/A|G2GA|
Bcde|f/d/c2B|A/B/cG>F|1F4:|2F3|
|:f|dddc/B/|d/_e/fdc/B/|cd_ef|ga/g/_ed/c/|
fgag/f/|b3f|A/B/cG>F|F3:|
